X:1
T:BWV253 Soprano
C:Music21
L:1/4
M:4/4
K:A
V:1 name="Melody" clef=treble
%%MIDI program 1 40
 c/d/ e c A | B c d c | B A A3/2 B/ | c c B/A/ B | A3  c | B c A F | B A B c | A A A3/2 B/ | c c B/A/ B | A3 |]
V:2 name="Chords" clef=treble
%%MIDI program 2 0
[A,EA] [A,Ec] [A,CE] [A,CE] | [DFA] [EGB] [DFA] [EGB] | [EGB] [CEA] [CEA] [EGB] | [EAc] [DFA] [EGB] [EGB] | [CEA] [CEA] [EGB] [EGB] | [EGB] [EAc] [CEA] [DFA] | [EGB] [CEA] [EGB] [EAc] | [CEA] [CEA] [CEA] [EGB] | [EAc] [DFA] [EGB] [EGB] | [CEA] [CEA] [A,EA] |]
